resources/Testing_Color_1_3.C0046.cube
TITLE "Generate by Resolve"
LUT_3D_SIZE 9
0 0 0
0.16759 0 0
0.377142 0 0
0.569818 0 0
0.753735 0 0
0.932143 0 0
1 0 0
1 0 0
1 0 0
0 0.144579 0
0.132799 0.12845 0
0.331273 0.119493 0
0.517571 0.112444 0
0.697673 0.106233 0
0.87332 0.100542 0
1 0.0951705 0
1 0.0904707 0
1 0.0939956 0
0 0.320439 0
0.103593 0.301015 0
0.299565 0.28957 0
0.483879 0.280537 0
0.662318 0.272663 0
0.836545 0.265522 0
1 0.258915 0
1 0.252705 0
1 0.255161 0
0 0.48365 0
0.0770733 0.462654 0
0.271702 0.449866 0
0.454826 0.439643 0
0.632212 0.430716 0
0.805478 0.422644 0
0.975586 0.415167 0
1 0.408118 0
1 0.409674 0
0 0.64062 0
0.0517586 0.618585 0
0.245457 0.604868 0
0.427756 0.59382 0
0.604395 0.584131 0
0.776944 0.575341 0
0.94638 0.567193 0
1 0.559533 0
1 0.560433 0
0 0.79321 0
0.0272679 0.770428 0
0.220264 0.756024 0
0.401907 0.74432 0
0.577951 0.73402 0
0.74995 0.724666 0
0.918853 0.715999 0
1 0.707835 0
1 0.708247 0
0 0.942535 0
0.00334173 0.919142 0
0.195773 0.904173 0
0.376928 0.891951 0
0.552468 0.881148 0
0.723995 0.871336 0
0.89247 0.862226 0
1 0.853635 0
1 0.853666 0
0 1 0
0 1 0
0.171771 1 0
0.352499 1 0
0.527642 1 0
0.698772 1 0
0.866865 1 0
1 0.997681 0
1 0.997421 0
0 1 0
0 1 0
0.171786 1 0
0.35137 1 0
0.525612 1 0
0.69601 1 0
0.863508 1 0
1 1 0
1 1 0
0 0 0.172717
0.163348 0 0.160311
0.372976 0 0.162539
0.564126 0 0.160342
0.747387 0 0.157275
0.925383 0 0.153887
1 0 0.150378
1 0 0.148592
1 0 0.153506
0 0.138598 0.139925
0.126284 0.121935 0.123262
0.324422 0.112612 0.113939
0.51043 0.105303 0.10663
0.690318 0.0988785 0.100206
0.865782 0.0929885 0.094316
1 0.08748 0.0888075
1 0.082475 0.0838026
1 0.0858778 0.0872053
0 0.313222 0.112779
0.0961624 0.293584 0.0931258
0.291997 0.281987 0.0815137
0.476143 0.272801 0.0723278
0.654459 0.264805 0.0643473
0.828565 0.257557 0.0570993
0.99942 0.250843 0.0504005
1 0.244495 0.0440528
1 0.246708 0.0462654
0 0.475883 0.0872816
0.0691691 0.454749 0.0661326
0.263691 0.441855 0.0532235
0.446708 0.43154 0.0429084
0.624018 0.422538 0.0339055
0.797208 0.414374 0.025742
0.967224 0.406821 0.018204
1 0.399695 0.0110781
1 0.400992 0.0123598
0 0.632471 0.062623
0.043534 0.610361 0.0405127
0.237171 0.596567 0.0267185
0.419379 0.585443 0.0155795
0.595941 0.575677 0.00581369
0.768429 0.566827 0
0.937804 0.558633 0
1 0.550912 0
1 0.551537 0
0 0.784817 0.0386053
0.0187991 0.761959 0.0157626
0.211749 0.747494 0.00129702
0.393332 0.735729 0
0.569314 0.725383 0
0.741253 0.715969 0
0.910094 0.707256 0
1 0.699046 0
1 0.699168 0
0 0.933913 0.0150607
0 0.910475 0
0.187076 0.89546 0
0.36817 0.883177 0
0.543664 0.872343 0
0.715145 0.86247 0
0.883574 0.85333 0
1 0.844694 0
1 0.84445 0
0 1 0
0 1 0
0.162936 1 0
0.343618 1 0
0.5187 1 0
0.689799 1 0
0.857847 0.997589 0
1 0.988602 0
1 0.988052 0
0 1 0
0 1 0
0.16199 1 0
0.341512 1 0
0.515709 1 0
0.686076 1 0
0.853513 1 0
1 1 0
1 1 0
0 0 0.375341
0.164279 0 0.366491
0.371023 0 0.366308
0.56112 0 0.363378
0.743847 0 0.360021
0.921462 0 0.356542
1 0 0.353002
1 0 0.351247
1 0 0.356207
0 0.135393 0.342061
0.122621 0.118273 0.324681
0.320424 0.108629 0.315053
0.506188 0.101061 0.307576
0.685878 0.0944381 0.30106
0.861173 0.0883803 0.29514
1 0.0827192 0.289616
1 0.0775464 0.284596
1 0.0808118 0.288029
0 0.308888 0.314
0.0916457 0.289082 0.293782
0.287327 0.277317 0.28191
0.471336 0.267994 0.272602
0.649531 0.259876 0.264515
0.823529 0.252537 0.257237
0.994293 0.245716 0.250507
1 0.239277 0.244175
1 0.241352 0.246357
0 0.471015 0.288167
0.0641947 0.44979 0.266453
0.25864 0.43679 0.2533
0.44155 0.426383 0.242832
0.618769 0.417288 0.233722
0.791882 0.409049 0.225513
0.961822 0.401434 0.217929
1 0.394247 0.210803
1 0.395377 0.212024
0 0.627268 0.263371
0.0382544 0.605081 0.24065
0.231815 0.591211 0.226596
0.413962 0.580011 0.215305
0.590463 0.570199 0.205447
0.762875 0.561288 0.196521
0.932189 0.553033 0.188281
1 0.545251 0.180545
1 0.545739 0.181064
0 0.779339 0.239292
0.0132753 0.756436 0.215839
0.20618 0.741924 0.201083
0.387717 0.730098 0.189151
0.563638 0.719692 0.178683
0.735515 0.710246 0.169192
0.904326 0.701488 0.160418
1 0.693233 0.152178
1 0.693202 0.152178
0 0.928252 0.215763
0 0.904753 0.191699
0.181338 0.889708 0.176394
0.362371 0.877379 0.163928
0.537835 0.866499 0.152972
0.70927 0.856596 0.143008
0.877638 0.847395 0.133776
1 0.838743 0.125109
1 0.838331 0.124712
0 1 0.192569
0 1 0.168032
0.157046 1 0.152255
0.337667 1 0.139361
0.512734 1 0.127977
0.683787 1 0.117601
0.851804 0.991531 0.108003
1 0.982513 0.0989548
1 0.981796 0.0982376
0 1 0.195956
0 1 0.168383
0.155581 1 0.150973
0.335073 1 0.136889
0.509224 1 0.124575
0.679545 1 0.113466
0.846952 1 0.103227
1 1 0.0931563
1 1 0.0921798
0 0 0.572305
0.165774 0 0.566171
0.369497 0 0.562737
0.558816 0 0.558877
0.741085 0 0.55494
0.918364 0 0.551003
1 0 0.547082
1 0 0.545022
1 0 0.549676
0 0.132891 0.53756
0.119707 0.115358 0.519814
0.31722 0.105425 0.50988
0.502754 0.0976272 0.502144
0.682261 0.0908217 0.495399
0.857389 0.084596 0.489281
1 0.0787976 0.483589
1 0.073518 0.478401
1 0.0766613 0.481666
0 0.305394 0.5084
0.0879683 0.285405 0.48809
0.283497 0.273487 0.476097
0.467369 0.264027 0.466636
0.645457 0.255802 0.458427
0.819348 0.248356 0.451026
0.990005 0.241443 0.44419
1 0.234913 0.437736
1 0.236881 0.439796
0 0.467002 0.481987
0.0600748 0.44567 0.460288
0.254414 0.432578 0.447059
0.437247 0.42208 0.436515
0.614389 0.412909 0.427329
0.787411 0.404578 0.419028
0.957275 0.396887 0.411368
1 0.389639 0.404166
1 0.390677 0.405249
0 0.622934 0.456794
0.0338293 0.600656 0.434134
0.227329 0.586725 0.42005
0.4094 0.575448 0.408713
0.585824 0.56556 0.398779
0.75819 0.556603 0.389807
0.927443 0.548287 0.381506
1 0.540459 0.373709
1 0.540841 0.374121
0 0.774762 0.432395
0.00863661 0.751797 0.409049
0.20148 0.737209 0.394293
0.382956 0.725338 0.38233
0.558816 0.714885 0.371817
0.730663 0.705379 0.362295
0.899413 0.696574 0.353475
1 0.688273 0.345174
1 0.688151 0.345068
0 0.923476 0.408576
0 0.899931 0.38468
0.176455 0.884825 0.36939
0.357458 0.87245 0.356909
0.53286 0.861524 0.345922
0.704265 0.851575 0.335943
0.872587 0.842359 0.32668
1 0.833646 0.317968
1 0.833143 0.317464
0 1 0.385122
0 1 0.360784
0.152026 1 0.345068
0.332616 1 0.332174
0.507637 1 0.320775
0.67866 0.995956 0.310384
0.846632 0.986358 0.300755
1 0.977295 0.291676
1 0.976486 0.290867
0 1 0.388067
0 1 0.360739
0.150225 1 0.343389
0.329656 1 0.329305
0.503761 1 0.316991
0.674052 1 0.305852
0.840848 1 0.295018
1 1 0.285557
1 1 0.284474
0 0 0.758587
0.166079 0 0.752239
0.368307 0 0.747158
0.557 0 0.742519
0.738857 0 0.738048
0.915846 0 0.73373
1 0 0.729488
1 0 0.727199
1 0 0.731594
0 0.130907 0.72137
0.117357 0.113008 0.703426
0.314595 0.1028 0.693217
0.499901 0.094789 0.685222
0.67924 0.0878004 0.678248
0.854231 0.0814374 0.671916
1 0.0755016 0.665995
1 0.0701305 0.660655
1 0.073167 0.663722
0 0.30248 0.691218
0.0848859 0.282322 0.670954
0.280262 0.270268 0.658869
0.464027 0.260685 0.649287
0.641993 0.252338 0.640955
0.815793 0.244785 0.633417
0.986358 0.237797 0.626444
1 0.231189 0.619867
1 0.233082 0.621775
0 0.46363 0.664225
0.0565805 0.442176 0.642664
0.250828 0.428977 0.629435
0.43357 0.418402 0.61883
0.61062 0.40914 0.609567
0.783566 0.400748 0.60119
0.953368 0.392996 0.593439
1 0.385672 0.58613
1 0.386648 0.587121
0 0.619226 0.638605
0.0300603 0.596872 0.616159
0.223468 0.582864 0.602106
0.405478 0.571527 0.590753
0.581842 0.561578 0.580789
0.754147 0.552544 0.571756
0.923339 0.544182 0.563394
1 0.536309 0.555535
1 0.536614 0.55584
0 0.770825 0.613886
0.00462348 0.747784 0.590753
0.197406 0.73315 0.576074
0.378836 0.721218 0.564126
0.55465 0.710719 0.553613
0.726436 0.701167 0.544045
0.89514 0.692317 0.535195
1 0.68397 0.526848
1 0.683772 0.526665
0 0.919341 0.589792
0 0.89575 0.566125
0.172229 0.880583 0.550927
0.35317 0.868177 0.538491
0.528542 0.857206 0.52752
0.699901 0.847211 0.51751
0.868177 0.837949 0.508232
1 0.829206 0.499504
1 0.828626 0.498909
0 1 0.56611
0 1 0.542
0.147646 1 0.52639
0.328206 1 0.513542
0.503182 1 0.502174
0.674174 0.99147 0.491798
0.8421 0.981826 0.48217
1 0.972732 0.473075
1 0.971847 0.472175
0 1 0.568719
0 1 0.541604
0.145586 1 0.524361
0.324987 1 0.510338
0.499046 1 0.498054
0.669291 1 0.486946
0.836088 1 0.476158
1 1 0.466682
1 1 0.465537
0 0 0.939834
0.16611 0 0.930312
0.3673 0 0.924117
0.555459 0 0.918868
0.736965 0 0.913985
0.91368 0 0.909316
1 0 0.904799
1 0 0.902342
1 0 0.906508
0 0.129213 0.897795
0.115343 0.110994 0.879606
0.312322 0.100542 0.869154
0.497444 0.0923323 0.860945
0.676616 0.0851759 0.853773
0.851453 0.0786603 0.847257
1 0.0726024 0.841184
1 0.0671702 0.835737
1 0.0700999 0.838651
0 0.299962 0.866773
0.0822156 0.279637 0.846479
0.277455 0.267445 0.834287
0.461082 0.257755 0.824598
0.638941 0.249302 0.816144
0.81265 0.241642 0.808484
0.983139 0.234562 0.801404
1 0.227878 0.794705
1 0.229709 0.796551
0 0.460655 0.839292
0.0534981 0.439094 0.817761
0.247639 0.425803 0.804486
0.430304 0.415137 0.793805
0.607279 0.405798 0.784482
0.780163 0.397345 0.776013
0.949889 0.389517 0.768185
1 0.382132 0.7608
1 0.383047 0.761715
0 0.615946 0.813306
0.026688 0.593515 0.790936
0.220035 0.579431 0.776867
0.401968 0.568032 0.765469
0.578271 0.558022 0.755474
0.75053 0.548928 0.74638
0.919661 0.54052 0.737972
1 0.532586 0.730037
1 0.532845 0.730282
0 0.7673 0.788296
0.00105287 0.744213 0.765286
0.193774 0.729503 0.750607
0.375143 0.717525 0.738643
0.550912 0.706966 0.728099
0.722652 0.697368 0.718502
0.891295 0.688472 0.709606
1 0.680095 0.701228
1 0.679835 0.700969
0 0.915648 0.763973
0 0.891997 0.740429
0.168429 0.876783 0.725261
0.349325 0.864317 0.712825
0.524651 0.853315 0.701839
0.695949 0.84329 0.691814
0.86421 0.833982 0.682506
1 0.825193 0.673732
1 0.824552 0.673091
0 1 0.740093
0 1 0.716121
0.143709 1 0.700542
0.324208 1 0.687709
0.499153 0.997818 0.676341
0.670115 0.987411 0.665949
0.83801 0.977737 0.656291
1 0.968612 0.647196
1 0.967651 0.646235
0 1 0.742428
0 1 0.715465
0.141436 1 0.698268
0.32079 1 0.684276
0.49482 1 0.671992
0.665019 1 0.660853
0.83183 1 0.650111
0.997482 1 0.64062
1 1 0.639399
0 0 1
0.166033 0 1
0.366415 0 1
0.554131 0 1
0.735317 0 1
0.911788 0 1
1 0 1
1 0 1
1 0 1
0 0.127749 1
0.113588 0.109239 1
0.310323 0.0985428 1
0.495262 0.0901503 1
0.674281 0.0828412 1
0.848981 0.0761883 1
1 0.0700084 1
1 0.0645151 1
1 0.0673533 1
0 0.297719 1
0.0798199 0.277241 1
0.274922 0.264912 1
0.458442 0.2551 0.994217
0.63621 0.246555 0.985672
0.809812 0.238819 0.977905
0.980224 0.231647 0.970718
1 0.224887 0.963912
1 0.226673 0.965667
0 0.457984 1
0.0507362 0.436316 0.987198
0.24477 0.42295 0.973877
0.427344 0.412192 0.963149
0.604257 0.402777 0.95375
0.777066 0.394247 0.94522
0.946731 0.386343 0.937316
1 0.378912 0.929854
1 0.379782 0.930709
0 0.61297 0.982315
0.0236362 0.590463 0.960067
0.216922 0.576303 0.945998
0.398779 0.564843 0.934585
0.575036 0.554772 0.924529
0.747234 0.545632 0.915404
0.91632 0.537163 0.906935
1 0.529183 0.898939
1 0.529397 0.899138
0 0.764111 0.957031
0 0.740948 0.934142
0.190448 0.726192 0.919509
0.371771 0.714153 0.90753
0.547478 0.703548 0.896971
0.719173 0.693904 0.887343
0.887785 0.684962 0.878416
1 0.676539 0.869993
1 0.676234 0.869688
0 0.912261 0.932448
0 0.888563 0.909072
0.16495 0.873304 0.893965
0.3458 0.860792 0.881544
0.52108 0.849744 0.870542
0.692348 0.839673 0.860502
0.860563 0.830335 0.851179
1 0.821515 0.842374
1 0.820829 0.841688
0 1 0.908354
0 1 0.884581
0.140093 1 0.869062
0.320562 1 0.85626
0.49546 0.994125 0.844892
0.666377 0.983673 0.834501
0.834241 0.973968 0.824826
1 0.964813 0.815702
1 0.963806 0.81471
0 1 0.910475
0 1 0.883711
0.137667 1 0.86659
0.316976 1 0.852613
0.490959 1 0.840345
0.660563 1 0.828656
0.827939 1 0.818509
0.993561 1 0.808988
1 1 0.807736
0 0 1
0.166018 0 1
0.365759 0 1
0.553109 0 1
0.734096 0 1
0.91043 0 1
1 0 1
1 0 1
1 0 1
0 0.126558 1
0.112108 0.107759 1
0.308629 0.0968643 1
0.4934 0.0882887 1
0.672267 0.080827 1
0.846845 0.074052 1
1 0.0677653 1
1 0.0622263 1
1 0.0649729 1
0 0.295811 1
0.0777447 0.275166 1
0.272725 0.262715 1
0.456123 0.252796 1
0.633799 0.244144 1
0.807309 0.236316 1
0.977646 0.229068 1
1 0.222217 1
1 0.223987 1
0 0.45565 1
0.0482948 0.43389 1
0.242237 0.420401 1
0.424735 0.409567 1
0.601556 0.400076 1
0.774304 0.391485 1
0.943908 0.38352 1
1 0.376028 1
1 0.376867 1
0 0.610361 1
0.0209354 0.587762 1
0.21413 0.573526 1
0.395941 0.562005 1
0.572122 0.551873 1
0.744259 0.542672 1
0.913298 0.534142 1
1 0.526131 1
1 0.526299 1
0 0.761288 1
0 0.738033 1
0.187472 0.723217 1
0.368734 0.711131 1
0.544411 0.700481 1
0.716045 0.690776 1
0.884611 0.681788 1
1 0.67332 1
1 0.672999 1
0 0.909255 1
0 0.885481 1
0.161822 0.870176 1
0.342626 0.857618 1
0.517861 0.846525 1
0.689082 0.836408 1
0.857252 0.827024 1
1 0.818173 1
1 0.817456 1
0 1 1
0 1 1
0.136828 1 1
0.31725 1 1
0.492119 0.990768 1
0.662989 0.980285 0.994476
0.830823 0.97055 0.984909
0.996796 0.961364 0.975814
1 0.959808 0.97438
0 1 1
0 1 1
0.134279 1 1
0.313542 1 1
0.48748 1 0.999863
0.657084 1 0.988434
0.82443 1 0.978393
0.990021 1 0.968948
1 1 0.967712
0 0 1
0.169192 0 1
0.368414 0 1
0.555459 0 1
0.736171 0 1
0.912291 0 1
1 0 1
1 0 1
1 0 1
0 0.128496 1
0.113634 0.109285 1
0.309911 0.098146 1
0.49453 0.0894179 1
0.673289 0.0818494 1
0.847776 0.0749981 1
1 0.0686351 1
1 0.0631266 1
1 0.0658427 1
0 0.297047 1
0.078645 0.276066 1
0.273411 0.263416 1
0.456703 0.253376 1
0.634287 0.244633 1
0.807736 0.236728 1
0.978012 0.229435 1
1 0.222553 1
1 0.224338 1
0 0.456535 1
0.0488441 0.434424 1
0.242603 0.420783 1
0.424994 0.409812 1
0.601724 0.400244 1
0.774411 0.391577 1
0.943969 0.383566 1
1 0.376028 1
1 0.376883 1
0 0.611002 1
0.0212558 0.588083 1
0.214282 0.573678 1
0.395972 0.562036 1
0.572061 0.551812 1
0.744137 0.542535 1
0.91313 0.533974 1
1 0.525902 1
1 0.52607 1
0 0.761776 1
0 0.738201 1
0.187457 0.723201 1
0.368597 0.710994 1
0.544182 0.700252 1
0.715755 0.690486 1
0.884276 0.681453 1
1 0.672938 1
1 0.672587 1
0 0.909636 1
0 0.885527 1
0.161685 0.870039 1
0.342367 0.857374 1
0.51751 0.846174 1
0.68867 0.835996 1
0.856779 0.826551 1
1 0.817655 1
1 0.816892 1
0 1 1
0 1 1
0.136614 1 1
0.316915 1 1
0.491691 0.990341 1
0.662486 0.979782 1
0.830259 0.969985 1
0.99617 0.960739 1
1 0.959167 1
0 1 1
0 1 1
0.13402 1 1
0.313146 1 1
0.486992 1 1
0.656535 1 1
0.823804 1 1
0.989334 1 1
1 1 1
