resources/Testing_Color_1_3.C0046.cube
TITLE "Generate by Resolve"
LUT_3D_SIZE 5
0 0 0
0.377142 0 0
0.753735 0 0
1 0 0
1 0 0
0 0.320439 0
0.299565 0.28957 0
0.662318 0.272663 0
1 0.258915 0
1 0.255161 0
0 0.64062 0
0.245457 0.604868 0
0.604395 0.584131 0
0.94638 0.567193 0
1 0.560433 0
0 0.942535 0
0.195773 0.904173 0
0.552468 0.881148 0
0.89247 0.862226 0
1 0.853666 0
0 1 0
0.171786 1 0
0.525612 1 0
0.863508 1 0
1 1 0
0 0 0.375341
0.371023 0 0.366308
0.743847 0 0.360021
1 0 0.353002
1 0 0.356207
0 0.308888 0.314
0.287327 0.277317 0.28191
0.649531 0.259876 0.264515
0.994293 0.245716 0.250507
1 0.241352 0.246357
0 0.627268 0.263371
0.231815 0.591211 0.226596
0.590463 0.570199 0.205447
0.932189 0.553033 0.188281
1 0.545739 0.181064
0 0.928252 0.215763
0.181338 0.889708 0.176394
0.537835 0.866499 0.152972
0.877638 0.847395 0.133776
1 0.838331 0.124712
0 1 0.195956
0.155581 1 0.150973
0.509224 1 0.124575
0.846952 1 0.103227
1 1 0.0921798
0 0 0.758587
0.368307 0 0.747158
0.738857 0 0.738048
1 0 0.729488
1 0 0.731594
0 0.30248 0.691218
0.280262 0.270268 0.658869
0.641993 0.252338 0.640955
0.986358 0.237797 0.626444
1 0.233082 0.621775
0 0.619226 0.638605
0.223468 0.582864 0.602106
0.581842 0.561578 0.580789
0.923339 0.544182 0.563394
1 0.536614 0.55584
0 0.919341 0.589792
0.172229 0.880583 0.550927
0.528542 0.857206 0.52752
0.868177 0.837949 0.508232
1 0.828626 0.498909
0 1 0.568719
0.145586 1 0.524361
0.499046 1 0.498054
0.836088 1 0.476158
1 1 0.465537
0 0 1
0.366415 0 1
0.735317 0 1
1 0 1
1 0 1
0 0.297719 1
0.274922 0.264912 1
0.63621 0.246555 0.985672
0.980224 0.231647 0.970718
1 0.226673 0.965667
0 0.61297 0.982315
0.216922 0.576303 0.945998
0.575036 0.554772 0.924529
0.91632 0.537163 0.906935
1 0.529397 0.899138
0 0.912261 0.932448
0.16495 0.873304 0.893965
0.52108 0.849744 0.870542
0.860563 0.830335 0.851179
1 0.820829 0.841688
0 1 0.910475
0.137667 1 0.86659
0.490959 1 0.840345
0.827939 1 0.818509
1 1 0.807736
0 0 1
0.368414 0 1
0.736171 0 1
1 0 1
1 0 1
0 0.297047 1
0.273411 0.263416 1
0.634287 0.244633 1
0.978012 0.229435 1
1 0.224338 1
0 0.611002 1
0.214282 0.573678 1
0.572061 0.551812 1
0.91313 0.533974 1
1 0.52607 1
0 0.909636 1
0.161685 0.870039 1
0.51751 0.846174 1
0.856779 0.826551 1
1 0.816892 1
0 1 1
0.13402 1 1
0.486992 1 1
0.823804 1 1
1 1 1
