resources/Testing_Color_1_3.C0046.cube
TITLE "Generate by Resolve"
LUT_3D_SIZE 33
0 0 0
0 0 0
0.0562753 0 0
0.113375 0 0
0.16759 0 0
0.220447 0 0
0.272831 0 0
0.326101 0 0
0.377142 0 0
0.426566 0 0
0.474998 0 0
0.522667 0 0
0.569818 0 0
0.61648 0 0
0.662593 0 0
0.708324 0 0
0.753735 0 0
0.79881 0 0
0.843488 0 0
0.887953 0 0
0.932143 0 0
0.976059 0 0
1 0 0
1 0 0
1 0 0
1 0 0
1 0 0
1 0 0
1 0 0
1 0 0
1 0 0
1 0 0
1 0 0
0 0 0
0 0 0
0.0483558 0 0
0.107424 0 0
0.164538 0 0
0.218128 0 0
0.269856 0 0
0.320226 0 0
0.369467 0 0
0.417823 0 0
0.465461 0 0
0.512535 0 0
0.559167 0 0
0.605509 0 0
0.65124 0 0
0.696651 0 0
0.741772 0 0
0.786572 0 0
0.831022 0 0
0.875242 0 0
0.919219 0 0
0.962951 0 0
1 0 0
1 0 0
1 0 0
1 0 0
1 0 0
1 0 0
1 0 0
1 0 0
1 0 0
1 0 0
1 0 0
0 0.0425727 0
0 0.041886 0
0.0388342 0.0376898 0
0.0965438 0.0352483 0
0.150713 0.0333257 0
0.202884 0.031632 0
0.253651 0.0300908 0
0.303319 0.0286107 0
0.35201 0.0272068 0
0.399908 0.0258488 0
0.44715 0.0245518 0
0.493858 0.02327 0
0.540139 0.0220035 0
0.586099 0.0207675 0
0.631601 0.0195468 0
0.676753 0.0183566 0
0.72163 0.0171664 0
0.766247 0.0159915 0
0.810513 0.0148318 0
0.854551 0.0136873 0
0.898375 0.0125429 0
0.941955 0.0114137 0
0.985306 0.0102846 0
1 0.00917067 0
1 0.00805676 0
1 0.00695811 0
1 0.00585946 0
1 0.00474556 0
1 0.00466926 0
1 0.00581369 0
1 0.00683604 0
1 0.0078584 0
1 0.00888075 0
0 0.096437 0
0 0.0934615 0
0.0307317 0.0880598 0
0.0875868 0.0847639 0
0.1411 0.0822003 0
0.192737 0.0799878 0
0.243061 0.0779736 0
0.292348 0.076112 0
0.340703 0.0743725 0
0.388296 0.0727092 0
0.435279 0.0711223 0
0.481727 0.0695964 0
0.527779 0.0681163 0
0.573526 0.0666667 0
0.61883 0.0652628 0
0.663798 0.0638743 0
0.708507 0.0625162 0
0.752972 0.0611887 0
0.797086 0.0598764 0
0.84097 0.0585794 0
0.884657 0.0573129 0
0.9281 0.0560464 0
0.971328 0.0548104 0
1 0.0535744 0
1 0.0523537 0
1 0.0511482 0
1 0.0499275 0
1 0.0487373 0
1 0.0482338 0
1 0.0492714 0
1 0.0502022 0
1 0.051133 0
1 0.052079 0
0 0.144579 0
0 0.140993 0
0.023209 0.135088 0
0.0796521 0.13138 0
0.132799 0.12845 0
0.184115 0.125887 0
0.234134 0.123598 0
0.283162 0.121477 0
0.331273 0.119493 0
0.378653 0.117617 0
0.425422 0.115816 0
0.471687 0.114107 0
0.517571 0.112444 0
0.563134 0.110826 0
0.608301 0.10927 0
0.653117 0.107729 0
0.697673 0.106233 0
0.742 0.104768 0
0.786007 0.103334 0
0.829755 0.10193 0
0.87332 0.100542 0
0.916671 0.0991684 0
0.959792 0.0978103 0
1 0.0964828 0
1 0.0951705 0
1 0.0938582 0
1 0.0925612 0
1 0.0912795 0
1 0.0904707 0
1 0.0914321 0
1 0.0922866 0
1 0.0931411 0
1 0.0939956 0
0 0.190417 0
0 0.186481 0
0.016022 0.18027 0
0.0721752 0.176287 0
0.125063 0.173098 0
0.17615 0.170306 0
0.225956 0.167788 0
0.274784 0.165469 0
0.322713 0.163302 0
0.369924 0.161257 0
0.416526 0.159304 0
0.462638 0.157427 0
0.50837 0.155627 0
0.553811 0.153872 0
0.59884 0.152178 0
0.643534 0.15053 0
0.687968 0.148913 0
0.732174 0.147326 0
0.776089 0.145785 0
0.81973 0.144274 0
0.863188 0.142779 0
0.906447 0.141314 0
0.949477 0.139879 0
0.992325 0.13846 0
1 0.137057 0
1 0.135668 0
1 0.134295 0
1 0.132921 0
1 0.131899 0
1 0.132784 0
1 0.133547 0
1 0.134325 0
1 0.135119 0
0 0.234806 0
0 0.23061 0
0.00903334 0.22417 0
0.0649882 0.219974 0
0.117678 0.216587 0
0.168582 0.213626 0
0.218219 0.210941 0
0.266896 0.208469 0
0.314672 0.206149 0
0.36173 0.203952 0
0.408209 0.201877 0
0.454185 0.199878 0
0.499809 0.19794 0
0.545129 0.196078 0
0.590051 0.194278 0
0.634638 0.192508 0
0.678965 0.190799 0
0.723079 0.18912 0
0.766888 0.187488 0
0.810437 0.18587 0
0.853819 0.184298 0
0.896986 0.182757 0
0.939941 0.181216 0
0.982696 0.179721 0
1 0.178241 0
1 0.176776 0
1 0.175341 0
1 0.173907 0
1 0.172686 0
1 0.173495 0
1 0.174197 0
1 0.174914 0
1 0.175631 0
0 0.27808 0
0 0.273701 0
0.00221256 0.267094 0
0.0579843 0.262745 0
0.110536 0.259205 0
0.161288 0.256092 0
0.210788 0.253269 0
0.259327 0.25066 0
0.306981 0.248219 0
0.353933 0.245899 0
0.40029 0.243702 0
0.446159 0.241596 0
0.491676 0.239567 0
0.536889 0.237598 0
0.58172 0.235691 0
0.626215 0.233845 0
0.670451 0.232029 0
0.714488 0.230274 0
0.758206 0.22855 0
0.801678 0.226856 0
0.844984 0.225208 0
0.88806 0.223575 0
0.930938 0.221988 0
0.973632 0.220401 0
1 0.21886 0
1 0.217334 0
1 0.215808 0
1 0.214313 0
1 0.21294 0
1 0.213687 0
1 0.214328 0
1 0.214984 0
1 0.215641 0
0 0.320439 0
0 0.315923 0
0 0.309163 0
0.0511788 0.304677 0
0.103593 0.301015 0
0.154223 0.29778 0
0.203601 0.29485 0
0.252018 0.292119 0
0.299565 0.28957 0
0.34641 0.28716 0
0.392676 0.284855 0
0.438453 0.282658 0
0.483879 0.280537 0
0.529 0.278477 0
0.573739 0.276478 0
0.618158 0.274556 0
0.662318 0.272663 0
0.706264 0.270817 0
0.74992 0.269017 0
0.793317 0.267262 0
0.836545 0.265522 0
0.879561 0.263828 0
0.922377 0.262165 0
0.964996 0.260533 0
1 0.258915 0
1 0.257328 0
1 0.255756 0
1 0.2542 0
1 0.252705 0
1 0.253376 0
1 0.253956 0
1 0.254551 0
1 0.255161 0
0 0.362066 0
0 0.357412 0
0 0.350545 0
0.04448 0.345937 0
0.096788 0.342168 0
0.147311 0.338827 0
0.196597 0.33579 0
0.244923 0.332967 0
0.292378 0.330327 0
0.339132 0.327825 0
0.385306 0.325444 0
0.430991 0.323156 0
0.476326 0.320943 0
0.521385 0.318807 0
0.566049 0.316747 0
0.610391 0.314733 0
0.654475 0.312764 0
0.69836 0.310857 0
0.741939 0.308995 0
0.785275 0.307164 0
0.828428 0.305364 0
0.871382 0.303609 0
0.914137 0.301885 0
0.95671 0.300191 0
0.999161 0.298512 0
1 0.296864 0
1 0.295247 0
1 0.293629 0
1 0.292027 0
1 0.292638 0
1 0.293172 0
1 0.293706 0
1 0.294255 0
0 0.403067 0
0 0.398322 0
0 0.391348 0
0.0379187 0.386633 0
0.0901198 0.382773 0
0.140551 0.379339 0
0.189746 0.376211 0
0.23798 0.373312 0
0.285359 0.370581 0
0.332021 0.368002 0
0.378119 0.36553 0
0.423743 0.363165 0
0.469001 0.360891 0
0.513985 0.358679 0
0.558572 0.356542 0
0.602853 0.354467 0
0.646876 0.352453 0
0.690684 0.350469 0
0.734218 0.348531 0
0.777478 0.346654 0
0.820584 0.344808 0
0.863478 0.342977 0
0.906172 0.341207 0
0.948684 0.339452 0
0.991089 0.337713 0
1 0.336019 0
1 0.33434 0
1 0.332677 0
1 0.331029 0
1 0.331548 0
1 0.332021 0
1 0.332509 0
1 0.333013 0
0 0.443565 0
0 0.438712 0
0 0.431647 0
0.0314336 0.426856 0
0.0835584 0.422904 0
0.133898 0.419394 0
0.183017 0.416175 0
0.231174 0.413199 0
0.278477 0.410391 0
0.325063 0.407736 0
0.371084 0.405203 0
0.416648 0.402777 0
0.461845 0.400427 0
0.506752 0.398154 0
0.551293 0.395956 0
0.595499 0.39382 0
0.639475 0.39173 0
0.683223 0.3897 0
0.726696 0.387717 0
0.769894 0.385763 0
0.81294 0.383856 0
0.855787 0.381994 0
0.898436 0.380163 0
0.940887 0.378363 0
0.98323 0.376577 0
1 0.374823 0
1 0.373098 0
1 0.371389 0
1 0.369696 0
1 0.370138 0
1 0.370565 0
1 0.371008 0
1 0.371466 0
0 0.48365 0
0 0.478721 0
0 0.471565 0
0.0250248 0.466697 0
0.0770733 0.462654 0
0.127352 0.459068 0
0.176394 0.455787 0
0.224475 0.452735 0
0.271702 0.449866 0
0.318227 0.44715 0
0.364202 0.444541 0
0.409689 0.442054 0
0.454826 0.439643 0
0.499672 0.437324 0
0.544152 0.43505 0
0.588296 0.432868 0
0.632212 0.430716 0
0.675914 0.428626 0
0.719326 0.426596 0
0.762493 0.424598 0
0.805478 0.422644 0
0.84828 0.420722 0
0.890867 0.418845 0
0.933288 0.416983 0
0.975586 0.415167 0
1 0.413367 0
1 0.411597 0
1 0.409842 0
1 0.408118 0
1 0.408469 0
1 0.408865 0
1 0.409262 0
1 0.409674 0
0 0.52343 0
0 0.51841 0
0 0.511177 0
0.018677 0.506233 0
0.0706493 0.502129 0
0.120851 0.498482 0
0.169833 0.495125 0
0.217853 0.492012 0
0.265019 0.489082 0
0.311482 0.48629 0
0.357382 0.483635 0
0.402823 0.481086 0
0.447898 0.478614 0
0.492699 0.476234 0
0.537118 0.473915 0
0.581216 0.471672 0
0.625086 0.46949 0
0.668727 0.467338 0
0.712093 0.465248 0
0.755215 0.463203 0
0.798169 0.461204 0
0.840909 0.459251 0
0.883452 0.457313 0
0.925811 0.455421 0
0.968078 0.453559 0
1 0.451713 0
1 0.449912 0
1 0.448112 0
1 0.446342 0
1 0.446632 0
1 0.446983 0
1 0.447349 0
1 0.447715 0
0 0.562799 0
0 0.557717 0
0 0.550423 0
0.0123751 0.545419 0
0.0643015 0.541253 0
0.114443 0.537545 0
0.163363 0.534142 0
0.211322 0.530968 0
0.258412 0.527977 0
0.304829 0.525139 0
0.350683 0.522423 0
0.396063 0.519814 0
0.441093 0.517296 0
0.485847 0.51487 0
0.530205 0.512505 0
0.574258 0.510216 0
0.618082 0.507973 0
0.661677 0.505791 0
0.704997 0.503655 0
0.748058 0.501564 0
0.790967 0.499504 0
0.833677 0.497505 0
0.876173 0.495537 0
0.918502 0.493599 0
0.960723 0.491691 0
1 0.489815 0
1 0.487953 0
1 0.486122 0
1 0.484306 0
1 0.48455 0
1 0.484855 0
1 0.485191 0
1 0.485527 0
0 0.601831 0
0 0.596689 0
0 0.589334 0
0.00614939 0.584268 0
0.0580148 0.580041 0
0.108095 0.576272 0
0.15697 0.572808 0
0.204868 0.569574 0
0.251911 0.566537 0
0.298268 0.563638 0
0.344076 0.560876 0
0.389395 0.558221 0
0.434379 0.555657 0
0.479088 0.55317 0
0.523415 0.550774 0
0.567422 0.548424 0
0.611185 0.546151 0
0.654749 0.543923 0
0.698024 0.541741 0
0.741039 0.539605 0
0.783917 0.537514 0
0.826566 0.53547 0
0.869032 0.533455 0
0.911315 0.531487 0
0.95349 0.529534 0
0.995514 0.527611 0
1 0.525719 0
1 0.523857 0
1 0.522011 0
1 0.52221 0
1 0.522484 0
1 0.522759 0
1 0.523064 0
0 0.64062 0
0 0.635447 0
0 0.628 0
0 0.622873 0
0.0517586 0.618585 0
0.101808 0.614755 0
0.150622 0.611246 0
0.198474 0.607965 0
0.245457 0.604868 0
0.291783 0.601938 0
0.33753 0.59913 0
0.382818 0.596429 0
0.427756 0.59382 0
0.472419 0.591287 0
0.516686 0.58883 0
0.560662 0.58645 0
0.604395 0.584131 0
0.647898 0.581857 0
0.691127 0.579629 0
0.734112 0.577462 0
0.776944 0.575341 0
0.819577 0.573251 0
0.861997 0.571191 0
0.904234 0.569177 0
0.94638 0.567193 0
0.988357 0.565255 0
1 0.563317 0
1 0.56141 0
1 0.559533 0
1 0.559686 0
1 0.55993 0
1 0.560174 0
1 0.560433 0
0 0.679149 0
0 0.67393 0
0 0.666423 0
0 0.66125 0
0.0455787 0.656916 0
0.0955673 0.65304 0
0.144335 0.64947 0
0.192126 0.646143 0
0.239078 0.643015 0
0.285344 0.640024 0
0.331044 0.637171 0
0.376287 0.634424 0
0.421195 0.631769 0
0.465812 0.629191 0
0.510048 0.626703 0
0.553979 0.624277 0
0.597665 0.621912 0
0.641138 0.619608 0
0.684337 0.61735 0
0.727291 0.615137 0
0.770077 0.61297 0
0.812665 0.610849 0
0.855055 0.608759 0
0.897261 0.606714 0
0.939361 0.6047 0
0.981308 0.602701 0
1 0.600748 0
1 0.59881 0
1 0.596887 0
1 0.597009 0
1 0.597208 0
1 0.597436 0
1 0.597665 0
0 0.717403 0
0 0.712123 0
0 0.704585 0
0 0.699367 0
0.0394293 0.694987 0
0.0893721 0.691066 0
0.138094 0.687465 0
0.18584 0.684092 0
0.232746 0.680919 0
0.278965 0.677882 0
0.324636 0.674998 0
0.369833 0.672206 0
0.414694 0.669505 0
0.459281 0.666896 0
0.503471 0.664363 0
0.547356 0.661906 0
0.591012 0.659495 0
0.634455 0.65716 0
0.677623 0.654856 0
0.720531 0.652613 0
0.763287 0.650416 0
0.805829 0.648264 0
0.848188 0.646143 0
0.890364 0.644053 0
0.932433 0.642008 0
0.97435 0.639994 0
1 0.637995 0
1 0.636027 0
1 0.634073 0
1 0.634165 0
1 0.634333 0
1 0.634516 0
1 0.634714 0
0 0.755398 0
0 0.750072 0
0 0.742473 0
0 0.737209 0
0.0333257 0.732784 0
0.0832227 0.728832 0
0.131914 0.725185 0
0.179614 0.721767 0
0.226474 0.718547 0
0.272663 0.71548 0
0.318288 0.712551 0
0.363455 0.709728 0
0.408286 0.706996 0
0.452827 0.704341 0
0.496986 0.701778 0
0.540825 0.699275 0
0.584451 0.696834 0
0.627863 0.694453 0
0.670985 0.692119 0
0.713863 0.689845 0
0.756573 0.687617 0
0.7991 0.68542 0
0.841428 0.683268 0
0.883574 0.681163 0
0.925612 0.679072 0
0.967483 0.677028 0
1 0.674998 0
1 0.672999 0
1 0.671031 0
1 0.671077 0
1 0.671214 0
1 0.671366 0
1 0.67155 0
0 0.79321 0
0 0.787839 0
0 0.780209 0
0 0.774899 0
0.0272679 0.770428 0
0.0771191 0.76643 0
0.125765 0.762737 0
0.173434 0.759289 0
0.220264 0.756024 0
0.266407 0.752911 0
0.311986 0.74995 0
0.357122 0.747082 0
0.401907 0.74432 0
0.446418 0.741634 0
0.490547 0.739025 0
0.534356 0.736492 0
0.577951 0.73402 0
0.621317 0.731609 0
0.664408 0.729244 0
0.707256 0.72694 0
0.74995 0.724666 0
0.792432 0.722454 0
0.83473 0.720272 0
0.876844 0.71812 0
0.918853 0.715999 0
0.960693 0.713924 0
1 0.711879 0
1 0.70985 0
1 0.707835 0
1 0.707866 0
1 0.707973 0
1 0.70811 0
1 0.708247 0
0 0.830823 0
0 0.825422 0
0 0.817731 0
0 0.81239 0
0.0212406 0.807874 0
0.0710613 0.803845 0
0.119661 0.800107 0
0.1673 0.796628 0
0.214084 0.793317 0
0.260182 0.790188 0
0.305745 0.787182 0
0.350835 0.784283 0
0.39559 0.781476 0
0.44007 0.778759 0
0.484154 0.77612 0
0.527947 0.773556 0
0.571496 0.771054 0
0.614847 0.768597 0
0.657893 0.766217 0
0.70071 0.763867 0
0.743374 0.761578 0
0.785824 0.759319 0
0.828092 0.757107 0
0.870176 0.754925 0
0.912154 0.752789 0
0.953979 0.750683 0
0.995682 0.748608 0
1 0.746548 0
1 0.744518 0
1 0.744533 0
1 0.74461 0
1 0.744701 0
1 0.744808 0
0 0.868223 0
0 0.862776 0
0 0.85507 0
0 0.849683 0
0.0152438 0.845136 0
0.0650339 0.841062 0
0.113603 0.837293 0
0.161181 0.833768 0
0.207935 0.830442 0
0.254017 0.827268 0
0.299535 0.824231 0
0.344594 0.821286 0
0.389319 0.818463 0
0.433768 0.815702 0
0.477821 0.813046 0
0.521584 0.810452 0
0.565103 0.807904 0
0.608408 0.805432 0
0.651438 0.803006 0
0.69424 0.800641 0
0.736858 0.798306 0
0.779293 0.796033 0
0.82153 0.79379 0
0.863584 0.791592 0
0.905531 0.78941 0
0.947311 0.787274 0
0.988998 0.785168 0
1 0.783093 0
1 0.781033 0
1 0.781033 0
1 0.781079 0
1 0.781155 0
1 0.781247 0
0 0.90544 0
0 0.899962 0
0 0.892195 0
0 0.886778 0
0.00927749 0.8822 0
0.0590372 0.87808 0
0.107576 0.874296 0
0.155123 0.870741 0
0.201846 0.867369 0
0.247883 0.864164 0
0.29337 0.861097 0
0.338399 0.858137 0
0.383108 0.855268 0
0.427527 0.852491 0
0.471534 0.84979 0
0.515267 0.84715 0
0.55877 0.844602 0
0.602045 0.842084 0
0.645045 0.839643 0
0.6878 0.837232 0
0.730404 0.834882 0
0.772808 0.832578 0
0.815015 0.830304 0
0.857038 0.828077 0
0.89897 0.825879 0
0.940734 0.823713 0
0.982391 0.821576 0
1 0.819471 0
1 0.817395 0
1 0.81738 0
1 0.817395 0
1 0.817441 0
1 0.817502 0
0 0.942535 0
0 0.937011 0
0 0.929213 0
0 0.923751 0
0.00334173 0.919142 0
0.0530709 0.914992 0
0.101564 0.911162 0
0.149096 0.907576 0
0.195773 0.904173 0
0.241779 0.900938 0
0.287251 0.897826 0
0.33225 0.894835 0
0.376928 0.891951 0
0.421302 0.889128 0
0.465293 0.886412 0
0.508995 0.883757 0
0.552468 0.881148 0
0.595728 0.878614 0
0.638697 0.876143 0
0.681422 0.873716 0
0.723995 0.871336 0
0.766369 0.869001 0
0.80856 0.866697 0
0.850568 0.864439 0
0.89247 0.862226 0
0.934188 0.860029 0
0.97583 0.857877 0
1 0.855741 0
1 0.853635 0
1 0.853605 0
1 0.853605 0
1 0.85362 0
1 0.853666 0
0 0.979446 0
0 0.973892 0
0 0.966079 0
0 0.960586 0
0 0.955947 0
0.0471199 0.951766 0
0.0955978 0.947906 0
0.143084 0.944274 0
0.189746 0.940856 0
0.235721 0.937591 0
0.281147 0.934447 0
0.326131 0.931426 0
0.370779 0.928512 0
0.415137 0.925673 0
0.459098 0.922911 0
0.50277 0.920226 0
0.546212 0.917601 0
0.589441 0.915038 0
0.63238 0.912535 0
0.67509 0.910094 0
0.717632 0.907668 0
0.759991 0.905318 0
0.802136 0.902998 0
0.844129 0.90071 0
0.886 0.898466 0
0.927703 0.896254 0
0.969314 0.894072 0
1 0.89192 0
1 0.889784 0
1 0.889754 0
1 0.889723 0
1 0.889723 0
1 0.889723 0
0 1 0
0 1 0
0 1 0
0 0.997238 0
0 0.992569 0
0.0412146 0.988357 0
0.089662 0.984466 0
0.137118 0.980804 0
0.183749 0.977356 0
0.229694 0.97406 0
0.27509 0.970901 0
0.320043 0.967849 0
0.36466 0.964889 0
0.409003 0.962036 0
0.452934 0.959243 0
0.49659 0.956542 0
0.540002 0.953887 0
0.5832 0.951293 0
0.626123 0.948775 0
0.668803 0.946288 0
0.71133 0.943862 0
0.753658 0.941482 0
0.795789 0.939132 0
0.837751 0.936828 0
0.879606 0.934554 0
0.921279 0.932311 0
0.962875 0.930114 0
1 0.927932 0
1 0.92578 0
1 0.925734 0
1 0.925689 0
1 0.925658 0
1 0.925643 0
0 1 0
0 1 0
0 1 0
0 1 0
0 1 0
0.0353094 1 0
0.0837262 1 0
0.131151 1 0
0.177752 1 0
